X:1
T:067 - Cristo Exaltado
T:Letra: Stuart Edmund McNair (1867-1959)
T:Música: Peter Philip Bilhorn (1861-1936)
M:4/4
L:1/8
K:C
V:1
"C"G>G G>A G>F E>F | G2c2G4 | "F"A>A A>B d>c B>A | "C"G2E2"G"D4 | "C"G>G G>A G>F E>F | G2c2c2c>d | "C/G"e>e d>c "G7"d>d c>B | "C"c6 z2 || "C"(G4G)>c e>c | "F"(A4A)>c B>A | "C"G3c e2c2 | "G7"d6 z2 | "C"(G4G)>c e>c | "F"(A4A)>c B>A | "C/G"G3c "G7"e2d2 | "C"c6 z2 |]
w: 1.~Eis en-tro-ni-za-do,à des-tra do bom Deus, Co-mo Rei e-ter-no, Cris-to, lá nos céus; E-leé Rei da gló-ria, quea Sa-tã ven-ceu; Fei-ta tal vi-tó-ria, Deus o re-ce-beu.    Pe_la su-a gra_ça,__ pe-lo seu a-mor,    Se_ja da-doa Cris__to_ cor-di-al lou-vor!
w: 2.~Vei-o res-ga-tar-nos pe-la su-a cruz; Quer a-pre-sen-tar-nos em ce-les-te luz. Pe-la su-a mor-te, pe-lo seu so-frer, Oi-ni-mi-go nun-ca po-de-rá ven-cer. 
w: 3.~Mas o seu ser-vi-ço con-ti-nu-aa-li; Po-de-rá va-ler-nos, en-tre-tran-to,a-qui; Por nós ad-vo-gan_do o Pai es-tá; E-le nos a-ju-dae sem-prea-ju-da-rá. 
W: 
W: 
W: 1. Eis entronizado, à destra do bom Deus,
W: Como Rei eterno, Cristo, lá nos céus;
W: Ele é Rei da glória, que a Satã venceu;
W: Feita tal vitória, Deus o recebeu.
W: 
W:    (Estribilho)
W:    Pela sua graça, pelo seu amor,
W:    Seja dado a Cristo cordial louvor!     
W: 
W:
W:
W: 2. Veio resgatar-nos pela sua cruz;
W: Quer apresentar-nos em celeste luz.
W: Pela sua morte, pelo seu sofrer,
W: O inimigo nunca poderá vencer.
W: 
W: 3. Mas o seu serviço continua ali;
W: Poderá valer-nos, entretrando, aqui;
W: Por nós advogando o Pai está;
W: Ele nos ajuda e sempre ajudará.
W:         
W: 				         
W:           





%wordsfont Times-Roman 13.0
%vocalfont Times-Roman 13.0
